X: 47
T: No_52_A_Goose_Laments_His_Lost_Brother.krn
N: Derived from No_52_A_Goose_Laments_His_Lost_Brother.krn
%%abc-version 2.0
%%abcx-abcm2ps-target-version 5.9.1 (29 Sep 2008)
%%abc-creator hum2abc beta
%%abcx-conversion-date 2019/03/15 08:35:01
%%humdrum-veritas 2687749020
%%humdrum-veritas-data 2698010640
%%linebreak <none>
%%barnumbers 0
L: 1/16
M: 2/4
K: Bb clef=bass
[K:clef=bass][M:2/4]F,2F,2 F,2 z F, | 
F,F,G,2 G,2F, z ]|:  
C2C2 B,3G, | 
F,F,G,G, G,G,F, z | 
G,2G,2 F,3E, | 
D,F,F,F, F,F,F, z | 
F,2F,2 F,3F, | 
F,F,G,2 G,2 z2 :|]  



